X: 130
T: No_87_Song_for_Owner_of_Drum_(b).krn
N: Derived from No_87_Song_for_Owner_of_Drum_(b).krn
%%abc-version 2.0
%%abcx-abcm2ps-target-version 5.9.1 (29 Sep 2008)
%%abc-creator hum2abc beta
%%abcx-conversion-date 2019/03/15 08:35:45
%%humdrum-veritas 2734587593
%%humdrum-veritas-data 2387205397
%%linebreak <none>
%%barnumbers 0
L: 1/8
M: 2/4
K: F clef=bass
[K:clef=bass][M:2/4]F2F2 | 
F3/F/D2 | 
C2C2 | 
C3/C/ CG,/ z/ | 
F2F2 | 
F3/F/D2 | 
C2C2 | 
C3/C/ C z | 
D2E2 [I:setbarnb 10]| 
E3/D/C2 | 
(3CA,G,G,2 | 
(3A,A,G,F,2 | 
(3F,E,C,C,2 | 
C,3/C,/ C, z | 
D,2F,2 | 
F,3/D,/D,2 | 
C,C,- C,C, | 
C,4 | 
C,2z z/ C/ ||  
[M:3/4]C3/C/ C3/C/C2 :|]  
[M:2/4]C,4 | 
C,2z2 |]  



